src/assets/filled/House2.svg

<svg width="24" height="24" viewBox="0 0 24 24"  xmlns="http://www.w3.org/2000/svg">
<path d="M10 15.5C9.59 15.5 9.25 15.84 9.25 16.25V17.75C9.25 18.16 9.59 18.5 10 18.5C10.41 18.5 10.75 18.16 10.75 17.75V16.25C10.75 15.84 10.41 15.5 10 15.5Z" />
<path d="M22 21.2497H21V9.97973C21 9.35973 20.72 8.77973 20.23 8.39973L13.23 2.95973C12.51 2.38973 11.49 2.38973 10.77 2.95973L3.77 8.39973C3.28 8.77973 3 9.35973 3 9.96973L2.95 21.2497H2C1.59 21.2497 1.25 21.5797 1.25 21.9997C1.25 22.4097 1.59 22.7497 2 22.7497H22C22.41 22.7497 22.75 22.4097 22.75 21.9997C22.75 21.5797 22.41 21.2497 22 21.2497ZM10.5 6.74973H13.5C13.91 6.74973 14.25 7.08973 14.25 7.49973C14.25 7.90973 13.91 8.24973 13.5 8.24973H10.5C10.09 8.24973 9.75 7.90973 9.75 7.49973C9.75 7.08973 10.09 6.74973 10.5 6.74973ZM17 21.2497H7V12.4997C7 11.6697 7.67 10.9997 8.5 10.9997H15.5C16.33 10.9997 17 11.6697 17 12.4997V21.2497Z" />
</svg>

<?xml version="1.0" encoding="UTF-8"?>
<svg width="24" height="24" viewBox="0 0 24 24" xmlns="http://www.w3.org/2000/svg">
 <path d="m10 15.5c-0.41 0-0.75 0.34-0.75 0.75v1.5c0 0.41 0.34 0.75 0.75 0.75s0.75-0.34 0.75-0.75v-1.5c0-0.41-0.34-0.75-0.75-0.75z"/>
 <path d="m22 21.25h-1v-11.27c0-0.62-0.28-1.2-0.77-1.58l-7-5.44c-0.72-0.57-1.74-0.57-2.46 0l-7 5.44c-0.49 0.38-0.77 0.96-0.77 1.57l-0.05 11.28h-0.95c-0.41 0-0.75 0.33-0.75 0.75 0 0.41 0.34 0.75 0.75 0.75h20c0.41 0 0.75-0.34 0.75-0.75 0-0.42-0.34-0.75-0.75-0.75zm-11.5-14.5h3c0.41 0 0.75 0.34 0.75 0.75s-0.34 0.75-0.75 0.75h-3c-0.41 0-0.75-0.34-0.75-0.75s0.34-0.75 0.75-0.75zm6.5 14.5h-10v-8.75c0-0.83 0.67-1.5 1.5-1.5h7c0.83 0 1.5 0.67 1.5 1.5v8.75z"/>
</svg>
